X: 1
O: Vstmanland
R: Polska
S: efter Johan Wilhelm Magnusson frn Guldsmedshyttan som hade den efter Futteri-Petter
M: 3/4
K: G
L: 1/16
Z: Nils L, 2008-12-14
D2>F2 G2A2 A2A2 | G2FG A2F2 D4 | D2dd d2ed c2d2 | d2AA A2cA A2A2 |
G2F2 G2A2 A2A2 | G2FG A2F2 D4 | D2d2 (cB)cd (BG)Bc | (AF)AB G8 |
d2d2 (BG)Bd (BG)Bd | d2c2 (AF)Ac (AF)Ac | c2B2 G2B2 d2>c2 | A2A2 F2AF D4 |
d2d2 (BG)Bd (BG)Bd | d2c2 (AF)Ac (AF)Ac | c2B2 G2B2 d2>c2 | (AF)AB G8 |



